X:1
T:Some Day I Shall Know
T:Some Day I Shall Know
T:Daniel Brink Towner
T:Anna Huber Gardner, 1905
T:Public Domain Courtesy of the Cyber Hymnal™
C:Daniel Brink Towner
Z:Public Domain
Z:Courtesy of the Cyber Hymnal™
%%score ( 1 2 ) ( 3 4 )
L:1/8
Q:1/4=100
M:4/4
K:G
V:1 treble 
V:2 treble 
V:3 bass 
V:4 bass 
V:1
 [B,D]2 | [DB]3 [DB] [Ec][DB] [DB]>[DA] | [DA]6 D2 | [FA]3 [FA] [FB][FA] [EA]>[DG] | [DG]6 D2 | %5
w: 1.~Just|why He saved me, I don’t|know, Nor|why it was He loved me|so; But|
w: 2.~Just|why He whis- pered, “Come to|Me,” I|can- not know or tell to|thee; But|
w: 3.~Just|why He tries me ev- ery|day, And|lets new sor- rows cross my|way, I|
w: 4.~O|bless- èd know- ledge this, that|He Is|ev- er near to com- fort|me! So|
 [GB]3 [GB] [=Fd][Fd] [Ec]>[EG] | [Ge]6 [Gc]2 | [FA][EG][Fd][Gc] [GB]3 [DA] | [DG]6 z2 || %9
w: this I know— He is my|Lord, I’m|trust- ing in His bless- èd|word.|
w: this I know— I heard His|voice, And|in His love I now re-|joice.|
w: can- not tell; but this I|know— He’s|with me ev- ery- where I|go.|
w: ev- ery day I’ll trust and|sing, And|to my bless- èd Sav- ior|cling.|
"^Refrain" [Fd]2 [DF]4 [Fd]2 | [Gd]2 [DG]4 [GB]2 | [GB]3 [GA] [EG][EG] [GA]>[GB] | [FA]6 [FA]2 | %13
w: ||||
w: ||||
w: ||||
w: ||||
 [GB]3 [GB] G2 [DB]2 | [=Fd]3 [Fd] [Ec]2 [EA]2 | [DG] [GB]3 [GB][FA][Gd][Gc] | %16
w: |||
w: |||
w: |||
w: |||
 [GB]3 [DA] !fermata![DG]2 |] %17
w: |
w: |
w: |
w: |
V:2
 x2 | x8 | x6 D2 | x8 | x6 D2 | x8 | x8 | x8 | x8 || x8 | x8 | x8 | x8 | x4 G2 x2 | x8 | x8 | x6 |] %17
V:3
 G,2 | G,3 G, G,G, [D,G,]>[D,F,] | [D,F,]6 [D,F,]2 | [D,C]3 [D,C] [D,D][D,C] [G,C]>[G,B,] | %4
w: Some|day, yes, some day, * *|||
 [G,B,]6 [G,B,]2 | [G,D]3 [G,D] [G,B,][G,B,] [C,C]>[C,C] | [C,C]6 [C,E]2 | %7
w: |||
 [D,D][C,D][B,,D][C,E] [D,D]3 [D,C] | [G,B,]6 z2 || [D,A,]2 [D,C]4 [D,C]2 | %10
w: ||When I have|
 [G,B,]2 [G,B,]4 [G,D]2 | [A,^C]3 [A,C] [A,C][A,C] [A,C]>[A,C] | [D,D]6 [D,D]2 | %13
w: heard the an-|gel call, ’Twill all be plain,|the loss,|
 [G,D]3 [G,D] [G,B,]2 G,2 | [B,,G,]3 [B,,G,] [C,G,]2 [C,G,]2 | %15
w: the gain; Yes some|day, some day I|
 [D,B,] [D,D]3 [D,D][C,D][B,,D][A,,E] | [D,D]3 [D,C] !fermata![G,,G,B,]2 |] %17
w: shall know it all. * *||
V:4
 G,2 | G,3 G, G,G, x2 | x8 | x8 | x8 | x8 | x8 | x8 | x8 || x8 | x8 | x8 | x8 | x6 G,2 | x8 | x8 | %16
 x6 |] %17

